src/assets/duotone/CardAdd.svg

<?xml version="1.0" encoding="UTF-8"?>
<svg width="24" height="24" viewBox="0 0 24 24" xmlns="http://www.w3.org/2000/svg">
 <path d="m22 7.77v1.23h-20v-1.46c0-2.29 1.86-4.14 4.15-4.14h9.85v2.57c0 1.27 0.76 2.03 2.03 2.03h2.94c0.4 0 0.74-0.07 1.03-0.23z" opacity=".4"/>
 <path d="m2 9v7.46c0 2.29 1.86 4.14 4.15 4.14h11.7c2.29 0 4.15-1.85 4.15-4.14v-7.46h-20zm6 8.25h-2c-0.41 0-0.75-0.34-0.75-0.75s0.34-0.75 0.75-0.75h2c0.41 0 0.75 0.34 0.75 0.75s-0.34 0.75-0.75 0.75zm6.5 0h-4c-0.41 0-0.75-0.34-0.75-0.75s0.34-0.75 0.75-0.75h4c0.41 0 0.75 0.34 0.75 0.75s-0.34 0.75-0.75 0.75z"/>
 <path d="m20.97 1h-2.94c-1.27 0-2.03 0.76-2.03 2.03v2.94c0 1.27 0.76 2.03 2.03 2.03h2.94c1.27 0 2.03-0.76 2.03-2.03v-2.94c0-1.27-0.76-2.03-2.03-2.03zm0.94 3.93c-0.1 0.1-0.25 0.17-0.41 0.18h-1.41l0.01 1.39c-0.01 0.17-0.07 0.31-0.19 0.43-0.1 0.1-0.25 0.17-0.41 0.17-0.33 0-0.6-0.27-0.6-0.6v-1.4l-1.4 0.01c-0.33 0-0.6-0.28-0.6-0.61s0.27-0.6 0.6-0.6l1.4 0.01v-1.4c0-0.33 0.27-0.61 0.6-0.61s0.6 0.28 0.6 0.61l-0.01 1.39h1.41c0.33 0 0.6 0.27 0.6 0.6-0.01 0.17-0.08 0.31-0.19 0.43z"/>
</svg>

<svg width="24" height="24" viewBox="0 0 24 24"  xmlns="http://www.w3.org/2000/svg">
<path opacity="0.4" d="M22 7.77002V9.00002H2V7.54002C2 5.25002 3.86 3.40002 6.15 3.40002H16V5.97002C16 7.24002 16.76 8.00002 18.03 8.00002H20.97C21.37 8.00002 21.71 7.93002 22 7.77002Z" />
<path d="M2 9V16.46C2 18.75 3.86 20.6 6.15 20.6H17.85C20.14 20.6 22 18.75 22 16.46V9H2ZM8 17.25H6C5.59 17.25 5.25 16.91 5.25 16.5C5.25 16.09 5.59 15.75 6 15.75H8C8.41 15.75 8.75 16.09 8.75 16.5C8.75 16.91 8.41 17.25 8 17.25ZM14.5 17.25H10.5C10.09 17.25 9.75 16.91 9.75 16.5C9.75 16.09 10.09 15.75 10.5 15.75H14.5C14.91 15.75 15.25 16.09 15.25 16.5C15.25 16.91 14.91 17.25 14.5 17.25Z" />
<path d="M20.97 1H18.03C16.76 1 16 1.76 16 3.03V5.97C16 7.24 16.76 8 18.03 8H20.97C22.24 8 23 7.24 23 5.97V3.03C23 1.76 22.24 1 20.97 1ZM21.91 4.93C21.81 5.03 21.66 5.1 21.5 5.11H20.09L20.1 6.5C20.09 6.67 20.03 6.81 19.91 6.93C19.81 7.03 19.66 7.1 19.5 7.1C19.17 7.1 18.9 6.83 18.9 6.5V5.1L17.5 5.11C17.17 5.11 16.9 4.83 16.9 4.5C16.9 4.17 17.17 3.9 17.5 3.9L18.9 3.91V2.51C18.9 2.18 19.17 1.9 19.5 1.9C19.83 1.9 20.1 2.18 20.1 2.51L20.09 3.9H21.5C21.83 3.9 22.1 4.17 22.1 4.5C22.09 4.67 22.02 4.81 21.91 4.93Z" />
</svg>
